gama.ui.shared/icons_svg/light/editor/word.wrap.svg

<svg height="25" viewBox="-655.383 -3675.743 25 25" width="25" xmlns="http://www.w3.org/2000/svg"><g fill="none"><path d="m-651.043-3675.243h16.32c2.12076 0 3.84 1.7194 3.84 3.84v16.32c0 2.121-1.71924 3.84-3.84 3.84h-16.32c-2.1208 0-3.84-1.719-3.84-3.84v-16.32c0-2.1206 1.7192-3.84 3.84-3.84z" fill="#fff"/><path d="m-651.043-3675.243h16.32c2.12076 0 3.84 1.7194 3.84 3.84v16.32c0 2.121-1.71924 3.84-3.84 3.84h-16.32c-2.1208 0-3.84-1.719-3.84-3.84v-16.32c0-2.1206 1.7192-3.84 3.84-3.84z" stroke="#000" stroke-linecap="round" stroke-linejoin="round" stroke-width=".25"/><path d="m-640.4741-3659.6873h3.36884c1.22666 0 2.22221-.9957 2.22221-2.2222v-5.3333c0-1.2266-.99555-2.2222-2.22221-2.2222h-3.55554c-.2489 0-.44445.1956-.44445.4444 0 .2489.19555.4446.44445.4446h3.55554c.73776 0 1.33336.5954 1.33336 1.3332v5.3333c0 .7378-.5956 1.3335-1.33336 1.3335h-3.36884l1.9111-1.9112c.17774-.1778.17774-.4534 0-.6312-.1778-.1776-.4534-.1776-.63114 0l-2.66666 2.6667c-.1778.1777-.1778.4533 0 .6311l2.66666 2.6666c.17774.178.45334.178.63114 0 .17774-.1777.17774-.4533 0-.631l-1.9111-1.911zm-3.74225-8.8887c.24889 0 .44445-.1957.44445-.4446 0-.2488-.19556-.4444-.44445-.4444h-6.2222c-.24885 0-.44445.1956-.44445.4444 0 .2489.1956.4446.44445.4446zm0 4.4443c.24889 0 .44445-.1955.44445-.4443 0-.249-.19556-.4446-.44445-.4446h-6.2222c-.24885 0-.44445.1956-.44445.4446 0 .2488.1956.4443.44445.4443zm0 4.4444c.24889 0 .44445-.1957.44445-.4444 0-.2489-.19556-.4443-.44445-.4443h-6.2222c-.24885 0-.44445.1954-.44445.4443 0 .2487.1956.4444.44445.4444z" fill="#5c76a1"/></g></svg>

<?xml version="1.0" encoding="UTF-8" standalone="no"?>
<!DOCTYPE svg PUBLIC "-//W3C//DTD SVG 1.1//EN" "http://www.w3.org/Graphics/SVG/1.1/DTD/svg11.dtd">
<svg xmlns:dc="http://purl.org/dc/elements/1.1/" xmlns:xl="http://www.w3.org/1999/xlink" version="1.1" xmlns="http://www.w3.org/2000/svg" viewBox="-655.383 -3675.743 25 25" width="25" height="25">
  <defs/>
  <g id="SOURCES" stroke-dasharray="none" stroke="none" stroke-opacity="1" fill="none" fill-opacity="1">
    <title>SOURCES</title>
    <g id="SOURCES_Calque_2">
      <title>Calque 2</title>
      <g id="Graphic_9068">
        <path d="M -651.043 -3675.243 L -634.723 -3675.243 C -632.60224 -3675.243 -630.883 -3673.5236 -630.883 -3671.403 L -630.883 -3655.083 C -630.883 -3652.962 -632.60224 -3651.243 -634.723 -3651.243 L -651.043 -3651.243 C -653.1638 -3651.243 -654.883 -3652.962 -654.883 -3655.083 L -654.883 -3671.403 C -654.883 -3673.5236 -653.1638 -3675.243 -651.043 -3675.243 Z" fill="white"/>
        <path d="M -651.043 -3675.243 L -634.723 -3675.243 C -632.60224 -3675.243 -630.883 -3673.5236 -630.883 -3671.403 L -630.883 -3655.083 C -630.883 -3652.962 -632.60224 -3651.243 -634.723 -3651.243 L -651.043 -3651.243 C -653.1638 -3651.243 -654.883 -3652.962 -654.883 -3655.083 L -654.883 -3671.403 C -654.883 -3673.5236 -653.1638 -3675.243 -651.043 -3675.243 Z" stroke="black" stroke-linecap="round" stroke-linejoin="round" stroke-width=".25"/>
      </g>
      <g id="Group_9954">
        <title>prioritize-down</title>
        <g id="Graphic_9955">
          <path d="M -640.4741 -3659.6873 L -637.10526 -3659.6873 C -635.8786 -3659.6873 -634.88305 -3660.683 -634.88305 -3661.9095 L -634.88305 -3667.2428 C -634.88305 -3668.4694 -635.8786 -3669.465 -637.10526 -3669.465 L -640.6608 -3669.465 C -640.9097 -3669.465 -641.10525 -3669.2694 -641.10525 -3669.0206 C -641.10525 -3668.7717 -640.9097 -3668.576 -640.6608 -3668.576 L -637.10526 -3668.576 C -636.3675 -3668.576 -635.7719 -3667.9806 -635.7719 -3667.2428 L -635.7719 -3661.9095 C -635.7719 -3661.1717 -636.3675 -3660.576 -637.10526 -3660.576 L -640.4741 -3660.576 L -638.563 -3662.4872 C -638.38526 -3662.665 -638.38526 -3662.9406 -638.563 -3663.1184 C -638.7408 -3663.296 -639.0164 -3663.296 -639.19414 -3663.1184 L -641.8608 -3660.4517 C -642.0386 -3660.274 -642.0386 -3659.9984 -641.8608 -3659.8206 L -639.19414 -3657.154 C -639.0164 -3656.976 -638.7408 -3656.976 -638.563 -3657.154 C -638.38526 -3657.3317 -638.38526 -3657.6073 -638.563 -3657.785 L -640.4741 -3659.696 Z M -644.21635 -3668.576 C -643.96746 -3668.576 -643.7719 -3668.7717 -643.7719 -3669.0206 C -643.7719 -3669.2694 -643.96746 -3669.465 -644.21635 -3669.465 L -650.43855 -3669.465 C -650.6874 -3669.465 -650.883 -3669.2694 -650.883 -3669.0206 C -650.883 -3668.7717 -650.6874 -3668.576 -650.43855 -3668.576 Z M -644.21635 -3664.1317 C -643.96746 -3664.1317 -643.7719 -3664.3272 -643.7719 -3664.576 C -643.7719 -3664.825 -643.96746 -3665.0206 -644.21635 -3665.0206 L -650.43855 -3665.0206 C -650.6874 -3665.0206 -650.883 -3664.825 -650.883 -3664.576 C -650.883 -3664.3272 -650.6874 -3664.1317 -650.43855 -3664.1317 Z M -644.21635 -3659.6873 C -643.96746 -3659.6873 -643.7719 -3659.883 -643.7719 -3660.1317 C -643.7719 -3660.3806 -643.96746 -3660.576 -644.21635 -3660.576 L -650.43855 -3660.576 C -650.6874 -3660.576 -650.883 -3660.3806 -650.883 -3660.1317 C -650.883 -3659.883 -650.6874 -3659.6873 -650.43855 -3659.6873 Z" fill="#5c76a1"/>
        </g>
      </g>
    </g>
  </g>
</svg>
